public/logo-dark.svg

<svg width="245" height="44" viewBox="0 0 245 44" fill="none" xmlns="http://www.w3.org/2000/svg">
<path d="M228.617 26.4229L231.128 26.1874L231.102 26.8545C231.102 27.5956 231.272 28.2758 231.612 28.8949C231.952 29.5052 232.515 29.9805 233.3 30.3205C234.084 30.6519 235.017 30.8175 236.099 30.8175C237.633 30.8175 238.802 30.4818 239.604 29.8104C240.415 29.139 240.82 28.3717 240.82 27.5085C240.82 26.9068 240.607 26.3575 240.179 25.8604C239.743 25.3721 238.553 24.7095 236.609 23.8724C235.1 23.2184 234.071 22.717 233.522 22.3682C232.659 21.8015 232.022 21.1867 231.612 20.524C231.203 19.8526 230.998 19.0897 230.998 18.2351C230.998 17.2498 231.268 16.3604 231.809 15.5669C232.349 14.7735 233.138 14.1674 234.176 13.7489C235.222 13.3304 236.399 13.1211 237.707 13.1211C239.268 13.1211 240.585 13.3827 241.657 13.9059C242.73 14.429 243.506 15.1266 243.986 15.9986C244.474 16.8705 244.718 17.7032 244.718 18.4967C244.718 18.5752 244.714 18.706 244.705 18.8891L242.233 19.0853C242.233 18.5447 242.185 18.1218 242.089 17.8166C241.915 17.2847 241.644 16.8356 241.278 16.4694C240.912 16.1032 240.406 15.8111 239.761 15.5931C239.124 15.3664 238.409 15.253 237.616 15.253C236.221 15.253 235.135 15.5669 234.359 16.1948C233.766 16.6743 233.47 17.3109 233.47 18.1044C233.47 18.5752 233.592 18.9981 233.836 19.3731C234.08 19.7393 234.52 20.1011 235.157 20.4586C235.61 20.7115 236.687 21.2129 238.388 21.9628C239.765 22.5732 240.716 23.0527 241.239 23.4015C241.936 23.8637 242.473 24.4261 242.848 25.0888C243.223 25.7427 243.41 26.4883 243.41 27.3253C243.41 28.363 243.092 29.3221 242.455 30.2028C241.827 31.0748 240.955 31.7505 239.839 32.2301C238.723 32.7097 237.446 32.9495 236.007 32.9495C233.836 32.9495 232.061 32.4786 230.684 31.5369C229.315 30.5865 228.626 28.8818 228.617 26.4229Z" fill="#698899"/>
<path d="M224.869 25.8735L227.406 26.2267C226.604 28.4414 225.436 30.1156 223.901 31.2492C222.366 32.3827 220.644 32.9495 218.734 32.9495C216.406 32.9495 214.558 32.2388 213.189 30.8175C211.829 29.3962 211.148 27.3602 211.148 24.7095C211.148 21.2565 212.186 18.4008 214.261 16.1424C216.11 14.1282 218.408 13.1211 221.154 13.1211C223.186 13.1211 224.83 13.6661 226.085 14.756C227.349 15.846 228.082 17.3109 228.282 19.1507L225.889 19.3731C225.636 17.9866 225.113 16.9534 224.319 16.2732C223.535 15.5844 222.519 15.24 221.272 15.24C218.926 15.24 217.03 16.282 215.582 18.3659C214.327 20.1622 213.699 22.2941 213.699 24.7618C213.699 26.7324 214.183 28.2365 215.151 29.2742C216.119 30.3118 217.379 30.8306 218.931 30.8306C220.256 30.8306 221.455 30.399 222.528 29.5358C223.6 28.6725 224.38 27.4518 224.869 25.8735Z" fill="#698899"/>
<path d="M191.652 24.5917C191.652 21.1737 192.638 18.4095 194.608 16.2994C196.588 14.1805 198.986 13.1211 201.802 13.1211C204.191 13.1211 206.136 13.9015 207.635 15.4623C209.144 17.0144 209.898 19.0984 209.898 21.7143C209.898 23.5803 209.519 25.3111 208.76 26.9068C208.193 28.1014 207.478 29.1347 206.615 30.0066C205.752 30.8699 204.828 31.5369 203.842 32.0078C202.534 32.6356 201.148 32.9495 199.683 32.9495C198.148 32.9495 196.749 32.5833 195.485 31.8508C194.229 31.1184 193.274 30.0982 192.62 28.7902C191.975 27.4736 191.652 26.0741 191.652 24.5917ZM194.177 24.7225C194.177 25.8474 194.408 26.8806 194.87 27.8224C195.341 28.7641 196.038 29.5009 196.963 30.0328C197.887 30.5647 198.859 30.8306 199.879 30.8306C200.865 30.8306 201.802 30.5996 202.691 30.1374C203.581 29.6666 204.374 29.0169 205.072 28.1886C205.778 27.3515 206.332 26.3269 206.733 25.1149C207.143 23.8942 207.348 22.6952 207.348 21.5181C207.348 19.6085 206.811 18.0869 205.739 16.9534C204.675 15.8198 203.358 15.253 201.789 15.253C199.783 15.253 198.013 16.1119 196.479 17.8297C194.944 19.5387 194.177 21.8363 194.177 24.7225Z" fill="#698899"/>
<path d="M172.379 32.6197L176.381 13.4453H182.162C183.549 13.4453 184.608 13.5456 185.341 13.7461C186.387 14.0164 187.281 14.5004 188.022 15.198C188.763 15.8868 189.321 16.75 189.696 17.7877C190.071 18.8253 190.258 19.9894 190.258 21.2799C190.258 22.8233 190.023 24.2315 189.552 25.5045C189.09 26.7689 188.48 27.885 187.721 28.8529C186.971 29.812 186.182 30.5663 185.354 31.1156C184.534 31.6562 183.562 32.0573 182.437 32.3189C181.582 32.5195 180.532 32.6197 179.285 32.6197H172.379ZM175.4 30.4486H178.435C179.804 30.4486 181.02 30.3221 182.084 30.0692C182.747 29.9123 183.313 29.6812 183.784 29.376C184.403 28.9837 184.966 28.4648 185.471 27.8196C186.134 26.9651 186.662 25.9928 187.054 24.9029C187.455 23.8042 187.656 22.5573 187.656 21.1622C187.656 19.6101 187.385 18.4199 186.845 17.5915C186.304 16.7544 185.615 16.2007 184.778 15.9304C184.159 15.7299 183.196 15.6296 181.888 15.6296H178.5L175.4 30.4486Z" fill="#698899"/>
<path fill-rule="evenodd" clip-rule="evenodd" d="M14.1507 39.8828C18.9362 41.869 24.3183 41.8842 29.115 39.9252L30.0273 41.799C24.652 44.0337 18.5982 44.0185 13.2344 41.7566L14.1507 39.8828ZM40.463 27.4141L42.4903 27.883C40.8525 33.4628 37.0354 38.1568 31.8927 40.9152L30.9805 39.0433C35.5607 36.5648 38.9696 32.3842 40.463 27.4141V27.4141ZM2.89656 27.3867C4.37613 32.3297 7.75004 36.4954 12.2899 38.9847L11.3777 40.8566C6.27173 38.0862 2.48784 33.4033 0.865234 27.8466L2.89656 27.3867ZM39.3424 9.17969C41.9675 12.8578 43.3742 17.259 43.3666 21.7701C43.3671 23.1478 43.2371 24.5224 42.9784 25.8758L40.9511 25.4078C41.1756 24.2082 41.2882 22.9904 41.2876 21.7701C41.2951 17.7348 40.0501 13.7956 37.7227 10.4908L39.3424 9.17969ZM3.97957 9.24219L5.60139 10.5533C3.30332 13.8459 2.07502 17.7604 2.08204 21.7691C2.08138 22.9804 2.19233 24.1893 2.4135 25.3806L0.386231 25.8475C0.130269 24.5033 0.000976824 23.1382 3.61556e-05 21.7701C-0.00817451 17.285 1.38224 12.9079 3.97957 9.24219V9.24219ZM20.5905 0.101562V2.18517C15.285 2.47913 10.3293 4.91278 6.86791 8.92413L5.24609 7.61305C9.10378 3.11462 14.6546 0.39734 20.5905 0.101562ZM22.6565 0.0976562C28.6071 0.364193 34.1826 3.06491 38.0637 7.56073L36.4419 8.87181C32.955 4.86317 27.9722 2.44741 22.6504 2.1853L22.6565 0.0976562Z" fill="url(#paint0_linear_88_25446)"/>
<path fill-rule="evenodd" clip-rule="evenodd" d="M97.2393 13.6892C98.2762 13.6843 99.3095 13.8112 100.314 14.0669C101.25 14.3002 102.134 14.707 102.92 15.266C103.688 15.8292 104.309 16.569 104.73 17.4225C105.194 18.3955 105.434 19.4598 105.432 20.5372V20.5372L105.442 21.0448H99.7288V20.5452C99.8001 19.8885 99.5805 19.2335 99.1275 18.7515C98.5268 18.3404 97.8021 18.1487 97.0759 18.2089C96.3745 18.1844 95.6856 18.3987 95.1226 18.8165C94.5563 19.2527 94.0945 19.8091 93.7706 20.4453C93.4105 21.1459 93.1526 21.8943 93.0049 22.6677C92.8526 23.4117 92.7724 24.1687 92.7653 24.928C92.7631 25.3708 92.8139 25.8123 92.9167 26.2431C92.9987 26.5986 93.1585 26.9316 93.3847 27.2184C93.6122 27.4963 93.8992 27.7199 94.2246 27.8729C94.6318 28.0512 95.074 28.1359 95.5185 28.1207C95.9338 28.1293 96.3465 28.0532 96.7312 27.8969C97.0822 27.7482 97.4065 27.5433 97.6913 27.2903C97.9703 27.0418 98.2039 26.747 98.3818 26.4189C98.5757 26.0631 98.7351 25.6897 98.8579 25.3037V25.3037L98.9681 24.957H104.728L104.51 25.6125C103.905 27.6342 102.711 29.4308 101.079 30.7738C99.3826 32.0384 97.3033 32.6861 95.1867 32.6094C93.0388 32.7331 90.9208 32.0612 89.2395 30.7228C87.7963 29.4547 87.0646 27.4712 87.0646 24.8271C87.057 23.38 87.2837 21.9412 87.7361 20.5662C88.1638 19.2652 88.8371 18.0577 89.7196 17.0088C90.5974 15.9755 91.6895 15.1443 92.9207 14.5725C94.2772 13.9639 95.752 13.6623 97.2393 13.6892V13.6892ZM76.8955 13.6885L74.6905 24.5916C74.6478 24.7291 74.6144 24.8693 74.5903 25.0113C74.5583 25.2012 74.5252 25.397 74.4901 25.5979C74.4608 25.7766 74.4407 25.9567 74.43 26.1375C74.4199 26.3173 74.4139 26.4592 74.4139 26.5652C74.4167 26.9246 74.6065 27.2568 74.915 27.4425C75.2741 27.7132 75.7117 27.8598 76.1618 27.8602C76.7278 27.8724 77.2881 27.7458 77.7935 27.4915C78.2643 27.2463 78.6832 26.9127 79.0272 26.5092C79.3874 26.0782 79.6816 25.5963 79.9001 25.0792C80.1357 24.5317 80.3179 23.9628 80.4444 23.3805V23.3805L82.4268 13.6875H88.0814L84.337 32.1741H78.8789L79.1866 30.7511C77.752 31.9925 75.9051 32.6566 74.006 32.6138C71.6388 32.6138 70.0191 31.8144 69.1953 30.2955V30.2955L70.9683 21.6647L70.9753 21.6318V21.5978C70.9913 21.4819 71.0234 21.308 71.0705 21.0812C71.1286 20.8123 71.1847 20.5256 71.2419 20.2198C71.299 19.914 71.3521 19.6092 71.3982 19.3124C71.4495 19.0055 71.4773 18.6952 71.4814 18.3841C71.5038 17.3574 71.3063 16.3378 70.9021 15.3933V15.3933L71.2499 13.6945L76.8955 13.6885ZM154.424 13.9793C156.223 13.609 158.076 13.591 159.882 13.9264C160.75 14.0705 161.582 14.3785 162.334 14.8337C163.063 15.288 163.657 15.927 164.056 16.6854C164.502 17.6016 164.706 18.6164 164.648 19.6332V19.6332L164.638 20.1209H159.282L159.267 19.6382C159.286 19.1377 159.106 18.6499 158.765 18.2812C158.291 17.9201 157.696 17.7532 157.102 17.8145C156.462 17.7907 155.824 17.9042 155.232 18.1473C154.885 18.2817 154.67 18.6287 154.704 18.9977C154.706 19.225 154.818 19.4374 155.005 19.5673C155.461 19.8788 155.971 20.1047 156.508 20.2338V20.2338L158.878 20.9942C159.51 21.1862 160.126 21.426 160.722 21.7117C161.29 21.9842 161.813 22.3406 162.274 22.7689C162.734 23.2004 163.102 23.7205 163.354 24.2978C163.626 24.9457 163.759 25.6431 163.746 26.3454C163.775 27.387 163.498 28.4145 162.951 29.3022C162.431 30.102 161.732 30.7704 160.909 31.2548C160.048 31.7579 159.107 32.1123 158.127 32.303C157.121 32.5061 156.096 32.6086 155.069 32.6088C154.176 32.6067 153.285 32.5149 152.41 32.335C151.533 32.1638 150.69 31.8495 149.916 31.4047C149.16 30.9685 148.517 30.3629 148.038 29.636C147.517 28.7973 147.257 27.8238 147.29 26.838V26.838V25.6489H152.638V26.7071C152.629 26.9681 152.702 27.2253 152.847 27.4426C153.011 27.6741 153.224 27.8666 153.471 28.0061C153.773 28.1768 154.098 28.3033 154.437 28.3819C155.116 28.5442 155.823 28.5588 156.508 28.4248C156.792 28.3747 157.066 28.277 157.317 28.136C157.531 28.0186 157.715 27.8547 157.856 27.6564C157.984 27.451 158.045 27.2119 158.032 26.9709C158.073 26.6584 157.973 26.3438 157.758 26.1125C157.428 25.8722 157.061 25.687 156.671 25.5639V25.5639L153.057 24.4138C152.495 24.2327 151.945 24.0151 151.412 23.7622C150.927 23.5317 150.487 23.2189 150.109 22.8379C149.733 22.4486 149.446 21.983 149.266 21.4729C149.066 20.8658 148.972 20.2291 148.987 19.5903C148.954 18.5891 149.234 17.6025 149.789 16.7673C150.313 16.0217 150.997 15.4027 151.793 14.9556C152.615 14.4943 153.504 14.1649 154.429 13.9793H154.424ZM138.135 13.6885L135.93 24.5916C135.887 24.7287 135.853 24.8686 135.83 25.0103C135.798 25.2012 135.764 25.397 135.729 25.5979C135.7 25.7766 135.68 25.9567 135.669 26.1375C135.658 26.3173 135.653 26.4592 135.653 26.5652C135.656 26.9246 135.846 27.2568 136.154 27.4425C136.514 27.7131 136.952 27.8597 137.403 27.8602C137.97 27.8724 138.531 27.7458 139.038 27.4915C139.509 27.2466 139.929 26.913 140.274 26.5092C140.634 26.0782 140.929 25.5963 141.147 25.0792C141.383 24.5317 141.566 23.9628 141.693 23.3805V23.3805L143.678 13.6875H149.335L145.584 32.1741H140.116L140.424 30.7511C138.986 31.9929 137.137 32.6569 135.235 32.6138C132.243 32.6138 130.441 31.3497 129.938 28.9444C130.315 28.2857 130.638 27.598 130.906 26.8879C130.906 26.8879 131.206 26.1115 131.436 25.2721C131.572 24.7702 131.681 24.2611 131.761 23.7472C131.85 23.0847 131.895 22.4171 131.897 21.7487C131.905 20.6927 131.759 19.6411 131.464 18.6269V18.6269L132.475 13.6925L138.135 13.6885ZM121.988 13.6883C123.142 13.6762 124.291 13.8393 125.396 14.1719C126.393 14.4736 127.312 14.9874 128.091 15.6779C128.854 16.3767 129.451 17.2376 129.836 18.197C130.265 19.2915 130.474 20.4589 130.453 21.6335C130.446 22.5599 130.355 23.4838 130.179 24.3935V24.3935L130.104 24.8002H117.562V25.2909C117.525 26.0531 117.807 26.7965 118.341 27.3434C119.036 27.9203 119.931 28.1997 120.832 28.1208C121.193 28.1276 121.552 28.0666 121.891 27.9409C122.19 27.8266 122.47 27.6683 122.722 27.4713C122.962 27.2795 123.176 27.0567 123.357 26.8088C123.561 26.529 123.75 26.2598 123.923 26.0014V26.0014L124.071 25.7815H129.754L129.492 26.46C129.139 27.392 128.676 28.2789 128.114 29.1021C127.587 29.8607 126.93 30.5213 126.174 31.0537C125.378 31.6 124.489 31.9991 123.551 32.2318C122.445 32.4979 121.31 32.6248 120.172 32.6095C119.06 32.6218 117.954 32.4576 116.895 32.1229C115.931 31.8175 115.049 31.3013 114.312 30.612C113.582 29.9105 113.016 29.0576 112.654 28.1138C112.249 27.0223 112.052 25.8649 112.074 24.7013C112.072 23.3051 112.305 21.9184 112.763 20.5993C113.201 19.3224 113.862 18.1329 114.716 17.0858C115.569 16.0521 116.632 15.2108 117.836 14.6176C119.128 13.988 120.551 13.6697 121.99 13.6883H121.988ZM114.626 7.55078L109.495 32.0979H103.906L109.003 7.55078L114.626 7.55078ZM64.8044 13.1776C68.3453 13.1776 70.2165 14.9763 70.2165 18.3678C70.2123 18.6261 70.1885 18.8836 70.1453 19.1383C70.1012 19.4247 70.0515 19.7169 69.996 20.0146C69.9405 20.3124 69.8854 20.5922 69.8306 20.854C69.7795 21.0979 69.7424 21.2937 69.7224 21.4426V21.4426L67.5465 32.0999H61.923L64.1009 21.2707C64.141 21.0199 64.2011 20.6582 64.2783 20.2065C64.3386 19.8893 64.3745 19.5679 64.3855 19.2452C64.3821 18.8868 64.1924 18.5558 63.8844 18.3708C63.5266 18.1009 63.0903 17.9546 62.6416 17.9541C62.0777 17.9422 61.5195 18.0684 61.016 18.3219C60.5475 18.5675 60.1307 18.9007 59.7883 19.3032C59.4291 19.7331 59.1363 20.2141 58.9193 20.7301C58.6842 21.2777 58.5027 21.8466 58.3771 22.4289V22.4289L56.4108 32.0999H50.8203L54.5155 13.6503H59.9506L59.65 15.0552C61.0709 13.8065 62.9108 13.1363 64.8044 13.1776V13.1776ZM122.267 17.673C121.725 17.6621 121.186 17.7597 120.682 17.9598C120.241 18.1426 119.837 18.404 119.49 18.7312C119.144 19.0634 118.854 19.4487 118.631 19.8724C118.495 20.1262 118.37 20.391 118.258 20.6608H124.973C124.955 20.3754 124.921 20.0912 124.873 19.8094C124.81 19.4166 124.677 19.0381 124.481 18.6922C124.296 18.3787 124.026 18.124 123.702 17.9578C123.254 17.7476 122.761 17.6492 122.267 17.671V17.673Z" fill="white"/>
<path fill-rule="evenodd" clip-rule="evenodd" d="M31.1701 21.8288C31.145 27.062 26.8867 31.2864 21.6534 31.2697C16.4202 31.253 12.1889 27.0015 12.1973 21.7682C12.2056 16.5349 16.4503 12.2969 21.6836 12.2969C24.2057 12.3026 26.6222 13.3102 28.4013 15.0978C30.1804 16.8855 31.1764 19.3068 31.1701 21.8288" fill="url(#paint1_radial_88_25446)"/>
<defs>
<linearGradient id="paint0_linear_88_25446" x1="-16.2456" y1="18.6443" x2="18.1005" y2="62.3578" gradientUnits="userSpaceOnUse">
<stop stop-color="#F6A705"/>
<stop offset="1" stop-color="#D04290"/>
</linearGradient>
<radialGradient id="paint1_radial_88_25446" cx="0" cy="0" r="1" gradientUnits="userSpaceOnUse" gradientTransform="translate(24.1138 18.9759) rotate(60.6682) scale(14.2673)">
<stop stop-color="#92B3C8"/>
<stop offset="0.601" stop-color="#0F2067"/>
<stop offset="1" stop-color="#D04290"/>
</radialGradient>
</defs>
</svg>

<?xml version="1.0" encoding="UTF-8"?><svg id="a" xmlns="http://www.w3.org/2000/svg" xmlns:xlink="http://www.w3.org/1999/xlink" viewBox="0 0 245 44"><defs><linearGradient id="b" x1="5.68" y1="44.58" x2="40.03" y2=".87" gradientTransform="translate(0 46) scale(1 -1)" gradientUnits="userSpaceOnUse"><stop offset="0" stop-color="#f6a705"/><stop offset="1" stop-color="#d04290"/></linearGradient><radialGradient id="c" cx="58.57" cy="83.01" fx="58.57" fy="83.01" r="1" gradientTransform="translate(-1417.81 -129.4) rotate(60.67) scale(14.27 -14.27)" gradientUnits="userSpaceOnUse"><stop offset="0" stop-color="#92b3c8"/><stop offset=".6" stop-color="#0f2067"/><stop offset="1" stop-color="#d04290"/></radialGradient></defs><path d="m228.62,26.42l2.51-.24-.03.67c0,.74.17,1.42.51,2.04.34.61.9,1.09,1.69,1.43.78.33,1.72.5,2.8.5,1.53,0,2.7-.34,3.51-1.01.81-.67,1.22-1.44,1.22-2.3,0-.6-.21-1.15-.64-1.65-.44-.49-1.63-1.15-3.57-1.99-1.51-.65-2.54-1.16-3.09-1.5-.86-.57-1.5-1.18-1.91-1.84-.41-.67-.61-1.43-.61-2.29,0-.99.27-1.87.81-2.67.54-.79,1.33-1.4,2.37-1.82,1.05-.42,2.22-.63,3.53-.63,1.56,0,2.88.26,3.95.78,1.07.52,1.85,1.22,2.33,2.09.49.87.73,1.7.73,2.5,0,.08,0,.21-.01.39l-2.47.2c0-.54-.05-.96-.14-1.27-.17-.53-.45-.98-.81-1.35s-.87-.66-1.52-.88c-.64-.23-1.35-.34-2.15-.34-1.4,0-2.48.31-3.26.94-.59.48-.89,1.12-.89,1.91,0,.47.12.89.37,1.27.24.37.68.73,1.32,1.09.45.25,1.53.75,3.23,1.5,1.38.61,2.33,1.09,2.85,1.44.7.46,1.23,1.02,1.61,1.69.38.65.56,1.4.56,2.24,0,1.04-.32,2-.96,2.88-.63.87-1.5,1.55-2.62,2.03-1.12.48-2.39.72-3.83.72-2.17,0-3.95-.47-5.32-1.41-1.37-.95-2.06-2.66-2.07-5.11Z" fill="#698799" stroke-width="0"/><path d="m224.87,25.87l2.54.35c-.8,2.21-1.97,3.89-3.51,5.02-1.54,1.13-3.26,1.7-5.17,1.7-2.33,0-4.18-.71-5.54-2.13-1.36-1.42-2.04-3.46-2.04-6.11,0-3.45,1.04-6.31,3.11-8.57,1.85-2.01,4.15-3.02,6.89-3.02,2.03,0,3.68.54,4.93,1.63,1.26,1.09,2,2.55,2.2,4.39l-2.39.22c-.25-1.39-.78-2.42-1.57-3.1-.78-.69-1.8-1.03-3.05-1.03-2.35,0-4.24,1.04-5.69,3.13-1.26,1.8-1.88,3.93-1.88,6.4,0,1.97.48,3.47,1.45,4.51.97,1.04,2.23,1.56,3.78,1.56,1.32,0,2.52-.43,3.6-1.29,1.07-.86,1.85-2.08,2.34-3.66Z" fill="#698799" stroke-width="0"/><path d="m191.65,24.59c0-3.42.99-6.18,2.96-8.29,1.98-2.12,4.38-3.18,7.19-3.18,2.39,0,4.33.78,5.83,2.34,1.51,1.55,2.26,3.64,2.26,6.25,0,1.87-.38,3.6-1.14,5.19-.57,1.19-1.28,2.23-2.14,3.1-.86.86-1.79,1.53-2.77,2-1.31.63-2.69.94-4.16.94s-2.93-.37-4.2-1.1c-1.26-.73-2.21-1.75-2.87-3.06-.64-1.32-.97-2.72-.97-4.2Zm2.53.13c0,1.12.23,2.16.69,3.1.47.94,1.17,1.68,2.09,2.21.92.53,1.9.8,2.92.8s1.92-.23,2.81-.69c.89-.47,1.68-1.12,2.38-1.95.71-.84,1.26-1.86,1.66-3.07.41-1.22.62-2.42.62-3.6,0-1.91-.54-3.43-1.61-4.56-1.06-1.13-2.38-1.7-3.95-1.7-2.01,0-3.78.86-5.31,2.58-1.54,1.71-2.3,4.01-2.3,6.89Z" fill="#698799" stroke-width="0"/><path d="m172.38,32.62l4-19.17h5.78c1.39,0,2.45.1,3.18.3,1.05.27,1.94.75,2.68,1.45.74.69,1.3,1.55,1.67,2.59.38,1.04.56,2.2.56,3.49,0,1.54-.24,2.95-.71,4.22-.46,1.26-1.07,2.38-1.83,3.35-.75.96-1.54,1.71-2.37,2.26-.82.54-1.79.94-2.92,1.2-.85.2-1.9.3-3.15.3h-6.91Zm3.02-2.17h3.04c1.37,0,2.59-.13,3.65-.38.66-.16,1.23-.39,1.7-.69.62-.39,1.18-.91,1.69-1.56.66-.85,1.19-1.83,1.58-2.92.4-1.1.6-2.35.6-3.74,0-1.55-.27-2.74-.81-3.57-.54-.84-1.23-1.39-2.07-1.66-.62-.2-1.58-.3-2.89-.3h-3.39l-3.1,14.82Z" fill="#698799" stroke-width="0"/><path d="m14.15,39.88c4.79,1.99,10.17,2,14.96.04l.91,1.87c-5.38,2.23-11.43,2.22-16.79-.04l.92-1.87Zm26.31-12.47l2.03.47c-1.64,5.58-5.45,10.27-10.6,13.03l-.91-1.87c4.58-2.48,7.99-6.66,9.48-11.63h0Zm-37.57-.03c1.48,4.94,4.85,9.11,9.39,11.6l-.91,1.87c-5.11-2.77-8.89-7.45-10.51-13.01l2.03-.46ZM39.34,9.18c2.63,3.68,4.03,8.08,4.02,12.59,0,1.38-.13,2.75-.39,4.11l-2.03-.47c.22-1.2.34-2.42.34-3.64,0-4.04-1.24-7.97-3.56-11.28l1.62-1.31Zm-35.36.06l1.62,1.31c-2.3,3.29-3.53,7.21-3.52,11.22,0,1.21.11,2.42.33,3.61l-2.03.47C.13,24.5,0,23.14,0,21.77c0-4.49,1.38-8.86,3.98-12.53h0ZM20.59.1v2.08c-5.31.29-10.26,2.73-13.72,6.74l-1.62-1.31C9.1,3.11,14.65.4,20.59.1Zm2.07,0c5.95.27,11.53,2.97,15.41,7.46l-1.62,1.31c-3.49-4.01-8.47-6.42-13.79-6.69V.1Z" fill="url(#b)" fill-rule="evenodd" stroke-width="0"/><path d="m97.24,13.69c1.04,0,2.07.12,3.07.38.94.23,1.82.64,2.61,1.2.77.56,1.39,1.3,1.81,2.16.46.97.7,2.04.7,3.11h0v.51s-5.7,0-5.7,0v-.5c.07-.66-.15-1.31-.6-1.79-.6-.41-1.33-.6-2.05-.54-.7-.02-1.39.19-1.95.61-.57.44-1.03.99-1.35,1.63-.36.7-.62,1.45-.77,2.22-.15.74-.23,1.5-.24,2.26,0,.44.05.88.15,1.32.08.36.24.69.47.98.23.28.51.5.84.65.41.18.85.26,1.29.25.42,0,.83-.07,1.21-.22.35-.15.68-.35.96-.61.28-.25.51-.54.69-.87.19-.36.35-.73.48-1.12h0l.11-.35h5.76l-.22.66c-.61,2.02-1.8,3.82-3.43,5.16-1.7,1.26-3.78,1.91-5.89,1.84-2.15.12-4.27-.55-5.95-1.89-1.44-1.27-2.17-3.25-2.17-5.9,0-1.45.22-2.89.67-4.26.43-1.3,1.1-2.51,1.98-3.56.88-1.03,1.97-1.86,3.2-2.44,1.36-.61,2.83-.91,4.32-.88h0Zm-20.34,0l-2.21,10.9c-.04.14-.08.28-.1.42-.03.19-.07.39-.1.59-.03.18-.05.36-.06.54-.01.18-.02.32-.02.43,0,.36.19.69.5.88.36.27.8.42,1.25.42.57.01,1.13-.11,1.63-.37.47-.25.89-.58,1.23-.98.36-.43.65-.91.87-1.43.24-.55.42-1.12.54-1.7h0l1.98-9.69h5.65l-3.74,18.49h-5.46l.31-1.42c-1.43,1.24-3.28,1.91-5.18,1.86-2.37,0-3.99-.8-4.81-2.32h0l1.77-8.63v-.03s0-.03,0-.03c.02-.12.05-.29.1-.52.06-.27.11-.56.17-.86.06-.31.11-.61.16-.91.05-.31.08-.62.08-.93.02-1.03-.18-2.05-.58-2.99h0l.35-1.7h5.65Zm77.53.29c1.8-.37,3.65-.39,5.46-.05.87.14,1.7.45,2.45.91.73.45,1.32,1.09,1.72,1.85.45.92.65,1.93.59,2.95h0v.49h-5.37v-.48c0-.5-.18-.99-.52-1.36-.47-.36-1.07-.53-1.66-.47-.64-.02-1.28.09-1.87.33-.35.13-.56.48-.53.85,0,.23.11.44.3.57.46.31.97.54,1.5.67h0l2.37.76c.63.19,1.25.43,1.84.72.57.27,1.09.63,1.55,1.06.46.43.83.95,1.08,1.53.27.65.4,1.35.39,2.05.03,1.04-.25,2.07-.79,2.96-.52.8-1.22,1.47-2.04,1.95-.86.5-1.8.86-2.78,1.05-1.01.2-2.03.31-3.06.31-.89,0-1.78-.09-2.66-.27-.88-.17-1.72-.49-2.49-.93-.76-.44-1.4-1.04-1.88-1.77-.52-.84-.78-1.81-.75-2.8h0v-1.19h5.35v1.06c0,.26.06.52.21.74.16.23.38.42.62.56.3.17.63.3.97.38.68.16,1.39.18,2.07.04.28-.05.56-.15.81-.29.21-.12.4-.28.54-.48.13-.21.19-.44.18-.69.04-.31-.06-.63-.27-.86-.33-.24-.7-.43-1.09-.55h0l-3.61-1.15c-.56-.18-1.11-.4-1.65-.65-.49-.23-.93-.54-1.3-.92-.38-.39-.66-.85-.84-1.36-.2-.61-.29-1.24-.28-1.88-.03-1,.25-1.99.8-2.82.52-.75,1.21-1.36,2-1.81.82-.46,1.71-.79,2.64-.98h0Zm-16.29-.29l-2.21,10.9c-.04.14-.08.28-.1.42-.03.19-.07.39-.1.59-.03.18-.05.36-.06.54-.01.18-.02.32-.02.43,0,.36.19.69.5.88.36.27.8.42,1.25.42.57.01,1.13-.11,1.63-.37.47-.24.89-.58,1.24-.98.36-.43.65-.91.87-1.43.24-.55.42-1.12.55-1.7h0l1.99-9.69h5.66l-3.75,18.49h-5.47l.31-1.42c-1.44,1.24-3.29,1.91-5.19,1.86-2.99,0-4.79-1.26-5.3-3.67.38-.66.7-1.35.97-2.06,0,0,.3-.78.53-1.62.14-.5.24-1.01.32-1.52.09-.66.13-1.33.14-2,0-1.06-.14-2.11-.43-3.12h0l1.01-4.93h5.66Zm-16.15,0c1.15-.01,2.3.15,3.41.48,1,.3,1.92.82,2.69,1.51.76.7,1.36,1.56,1.74,2.52.43,1.09.64,2.26.62,3.44,0,.93-.1,1.85-.27,2.76h0l-.07.41h-12.54v.49c-.04.76.25,1.51.78,2.05.69.58,1.59.86,2.49.78.36,0,.72-.05,1.06-.18.3-.11.58-.27.83-.47.24-.19.45-.41.64-.66.2-.28.39-.55.57-.81h0l.15-.22h5.68l-.26.68c-.35.93-.82,1.82-1.38,2.64-.53.76-1.18,1.42-1.94,1.95-.8.55-1.69.95-2.62,1.18-1.11.27-2.24.39-3.38.38-1.11.01-2.22-.15-3.28-.49-.96-.31-1.85-.82-2.58-1.51-.73-.7-1.3-1.55-1.66-2.5-.4-1.09-.6-2.25-.58-3.41,0-1.4.23-2.78.69-4.1.44-1.28,1.1-2.47,1.95-3.51.85-1.03,1.92-1.88,3.12-2.47,1.29-.63,2.72-.95,4.15-.93h0Zm-7.36-6.14l-5.13,24.55h-5.59l5.1-24.55h5.62Zm-49.82,5.63c3.54,0,5.41,1.8,5.41,5.19,0,.26-.03.52-.07.77-.04.29-.09.58-.15.88-.06.3-.11.58-.17.84-.05.24-.09.44-.11.59h0l-2.18,10.66h-5.62l2.18-10.83c.04-.25.1-.61.18-1.06.06-.32.1-.64.11-.96,0-.36-.19-.69-.5-.87-.36-.27-.79-.42-1.24-.42-.56-.01-1.12.11-1.63.37-.47.25-.89.58-1.23.98-.36.43-.65.91-.87,1.43-.24.55-.42,1.12-.54,1.7h0l-1.97,9.67h-5.59l3.7-18.45h5.44l-.3,1.4c1.42-1.25,3.26-1.92,5.15-1.88h0Zm57.46,4.5c-.54-.01-1.08.09-1.58.29-.44.18-.85.44-1.19.77-.35.33-.64.72-.86,1.14-.14.25-.26.52-.37.79h6.71c-.02-.29-.05-.57-.1-.85-.06-.39-.2-.77-.39-1.12-.19-.31-.46-.57-.78-.73-.45-.21-.94-.31-1.44-.29h0Z" fill="#fff" fill-rule="evenodd" stroke-width="0"/><path d="m31.17,21.83c-.03,5.23-4.28,9.46-9.52,9.44-5.23-.02-9.46-4.27-9.46-9.5,0-5.23,4.25-9.47,9.49-9.47,2.52,0,4.94,1.01,6.72,2.8,1.78,1.79,2.78,4.21,2.77,6.73" fill="url(#c)" fill-rule="evenodd" stroke-width="0"/></svg>
